!!!SOCIAL_FUNCTION:	songs of the sun dance
!!!PDT:	1922
!!!OTL: No_25_Sun_Dance_Song_(h).krn
!!!REG: Southwest
!!!LANG: Non-Tone
!!!LING_GROUP: Uto-Aztecan
**kern
*staff1
=1-
*clefF4
*k[f#c#g#]
*M3/4
8e\L
16e\L
16e\JJ
2e\
=2||
*M2/4
16e\LK
8.e\J
4A\
=3
8.c#\L
16e\Jk
20d\LL
20c#\
20d\
20B\
20B\JJ
=4
16F#\LK
8F#\
16E\Jk
12F#\L
12E\
12E\J
=5
4.E\
8E\
=6||
*M3/4
8e\L
16e\L
16e\JJ
2e\
=7||
*M2/4
16e\LK
8.e\J
4A\
=8
8.c#\L
16e\Jk
20d\LL
20c#\
20d\
20B\
20B\JJ
=9
16F#\LK
8F#\
16E\Jk
12F#\L
12E\
12E\J
=10
2E\
=11
8F#\L
[8A\J
8A\L]
8A\J
=12
2A\
=13
16C#/LK
8C#/
16BB/Jk
4AA/
=14
8F#\L
8A\J
8A\L
16A\L
16F#\JJ
=15
16A\LK
8A\
16F#\Jk
4E\
=16||
*M3/4
16F#\LL
16E\J
8E\J
4.E\
8E\
=17||
*M2/4
16F#\LL
16E\J
8E\J
4E\
=18
2E\
==
*-
